X:130 
T:Loughill Hornpipe, The 
B:CRE 3.229 (CornphÃÂÃÂÃÂÃÂ­opa na Leamhchoille)
F:file ID: cre.3/130lough
L:1/8
Q:150
M:4/4
R:hornpipe
K:G
GE|DDEF G2 (3GAB|c2 cA BA G2|cBcd e2 dB|(3ABc BG AGEG|
D2 (3DEF G2 (3GAB|c2 cA (3Bcd gd|BA (3GAB cAFG|1 AGGF G2:|\
[2 AGGF G3||
f|:g2 ed e3f|ged^c d2 d=c|(3B^cd BG d=cAG|1 A2 BG AGED|
gfed e2 ef|ged^c d2 d=c|(3BcB (3GAB cAFG|AGGF G2 ef:|\
[2 (3AB^c BG AGEG|DDEF G2 (3GAB|c2 cA|(3Bcd g2|BA (3GAB cAFG|\
AGGF G4 |]

%%%

